X:2
T:Pipe on the Hob, The
R:jig
M:6/8
L:1/8
K:Dmix
ded A2G|EFD DEF|EDE cBc|E2D DFA|
dcB cBA|BAG A2G|EDE cBc|1 E2D Dfe:|2 E2D D2e|]
|:f2d d^cd|f2d d^cd|edB c2d|ede age|
[1 f2d d^cd|f2d d^cd|ede age|ed^c dge:|
[2 ~f3 ~g3|afa gfe|fed eag|ed^c d2A|]
</abc>
